icons/facebook-circle-line.svg

<svg viewBox="0 0 24 24" fill="currentColor" xmlns="http://www.w3.org/2000/svg">
    <path d="M13.001 19.9381C16.9473 19.446 20.001 16.0796 20.001 12C20.001 7.58172 16.4193 4 12.001 4C7.5827 4 4.00098 7.58172 4.00098 12C4.00098 16.0796 7.05467 19.446 11.001 19.9381V14H9.00098V12H11.001V10.3458C11.001 9.00855 11.1402 8.52362 11.4017 8.03473C11.6631 7.54584 12.0468 7.16216 12.5357 6.9007C12.9184 6.69604 13.3931 6.57252 14.2227 6.51954C14.5519 6.49851 14.9781 6.52533 15.501 6.6V8.5H15.001C14.0837 8.5 13.7052 8.54332 13.4789 8.66433C13.3386 8.73939 13.2404 8.83758 13.1653 8.97793C13.0443 9.20418 13.001 9.42853 13.001 10.3458V12H15.501L15.001 14H13.001V19.9381ZM12.001 22C6.47813 22 2.00098 17.5228 2.00098 12C2.00098 6.47715 6.47813 2 12.001 2C17.5238 2 22.001 6.47715 22.001 12C22.001 17.5228 17.5238 22 12.001 22Z"/>
</svg>

<svg xmlns="http://www.w3.org/2000/svg" viewBox="0 0 24 24">
    <g>
        <path fill="none" d="M0 0h24v24H0z"/>
        <path d="M13 19.938A8.001 8.001 0 0 0 12 4a8 8 0 0 0-1 15.938V14H9v-2h2v-1.654c0-1.337.14-1.822.4-2.311A2.726 2.726 0 0 1 12.536 6.9c.382-.205.857-.328 1.687-.381.329-.021.755.005 1.278.08v1.9H15c-.917 0-1.296.043-1.522.164a.727.727 0 0 0-.314.314c-.12.226-.164.45-.164 1.368V12h2.5l-.5 2h-2v5.938zM12 22C6.477 22 2 17.523 2 12S6.477 2 12 2s10 4.477 10 10-4.477 10-10 10z"/>
    </g>
</svg>
